!!!OTL: KAFFEECHEN KAFFEECHEN
!!!ARE: Europa, Mitteleuropa, Deutschland
!!!SCT: F0092
!!!YEM: Copyright 1995, estate of Helmut Schaffrath.
**kern
*ICvox
*Ivox
*M3/8
*k[b-]
*F:
{8cc
=1
8cc
8a
8cc
=2
8cc
8a
8cc
=3
8dd
8dd
16ff
16dd
=4
4cc}
{8a
=5
8b-
8b-
8b-
=6
8a
8b-
8cc
=7
8cc
8b-
8a
=8
4g}
{8g
=9
8g
8e
8g
=10
8a
8a
8a
=11
8b-
8a
8g
=12
4cc}
{8cc
=13
8dd
16dd
16ee
16ff
16dd
=14
8cc
8a
8cc
=15
8b-
8g
8e
=16
4f}
==
!!!AGN: Scherz -, Loblied auf Kaffee
!!!ONB: ESAC (Essen Associative Code) Database: FINK
!!!AMT: simple triple
!!!AIN: vox
!!!EED: Helmut Schaffrath
!!!EEV: 1.0
*-
